X: 3
T: Paddy McFadden Vick Phawdeen
S: James Goodman manuscripts, mid-1800s
M: 6/8
L: 1/8
R: single jig / slide
K: ADor
|: g |\
e2 A AcA e2 f g2 e | d2 B GAG B2 c d2 g | 
e2 A AcA e2 f g2 e | d2 B G2 B A3 A2 :|
|: e |\
a2 e efe a2 b c2 a | g2 e ded d2 e g2 b |
a2 e efe a2 b c2 a | g2 e d2 B A3 A2 :|
